icons/package-16.svg

<svg width="16" height="16" viewBox="0 0 16 16" xmlns="http://www.w3.org/2000/svg">
  <path fill-rule="evenodd" clip-rule="evenodd" d="M8.87801 0.392201C8.33503 0.0772741 7.66497 0.077274 7.12199 0.392201L1.87199 3.4372C1.33224 3.75026 1 4.32703 1 4.95101V11.049C1 11.6729 1.33224 12.2497 1.87199 12.5628L7.12199 15.6078C7.66497 15.9227 8.33503 15.9227 8.87801 15.6078L14.128 12.5628C14.6678 12.2497 15 11.6729 15 11.049V4.95101C15 4.32703 14.6678 3.75026 14.128 3.4372L8.87801 0.392201ZM7.87457 1.68975C7.95214 1.64476 8.04786 1.64476 8.12543 1.68975L12.7552 4.37499L8.00001 7.13298L3.24485 4.37499L7.87457 1.68975ZM2.5 5.67702V11.049C2.5 11.1381 2.54746 11.2205 2.62457 11.2652L7.25 13.948V8.43202L2.5 5.67702ZM8.75 13.948L13.3754 11.2652C13.4525 11.2205 13.5 11.1381 13.5 11.049V5.67702L8.75 8.43202V13.948Z"/>
</svg>

<svg xmlns="http://www.w3.org/2000/svg" width="16" height="16" viewBox="0 0 16 16"><path fill-rule="evenodd" d="M8.878.392a1.75 1.75 0 00-1.756 0l-5.25 3.045A1.75 1.75 0 001 4.951v6.098c0 .624.332 1.2.872 1.514l5.25 3.045a1.75 1.75 0 001.756 0l5.25-3.045c.54-.313.872-.89.872-1.514V4.951c0-.624-.332-1.2-.872-1.514L8.878.392zM7.875 1.69a.25.25 0 01.25 0l4.63 2.685L8 7.133 3.245 4.375l4.63-2.685zM2.5 5.677v5.372c0 .09.047.171.125.216l4.625 2.683V8.432L2.5 5.677zm6.25 8.271l4.625-2.683a.25.25 0 00.125-.216V5.677L8.75 8.432v5.516z"/></svg>
